actions/16/go-previous.svg

<?xml version="1.0" encoding="UTF-8" standalone="no"?>
<!-- Created with Inkscape (http://www.inkscape.org/) -->

<svg
   xmlns:dc="http://purl.org/dc/elements/1.1/"
   xmlns:cc="http://creativecommons.org/ns#"
   xmlns:rdf="http://www.w3.org/1999/02/22-rdf-syntax-ns#"
   xmlns:svg="http://www.w3.org/2000/svg"
   xmlns="http://www.w3.org/2000/svg"
   xmlns:xlink="http://www.w3.org/1999/xlink"
   xmlns:inkscape="http://www.inkscape.org/namespaces/inkscape"
   version="1.1"
   width="16"
   height="16"
   id="svg2504">
  <defs
     id="defs2506">
    <linearGradient
       id="linearGradient5105-262-943-861">
      <stop
         id="stop2487"
         style="stop-color:#0d0d0d;stop-opacity:1"
         offset="0" />
      <stop
         id="stop2489"
         style="stop-color:#0d0d0d;stop-opacity:0"
         offset="1" />
    </linearGradient>
    <radialGradient
       cx="11.25"
       cy="19.03125"
       r="8.0625"
       fx="11.25"
       fy="19.03125"
       id="radialGradient2502"
       xlink:href="#linearGradient5105-262-943-861"
       gradientUnits="userSpaceOnUse"
       gradientTransform="matrix(1,0,0,0.282946,0,13.64644)" />
    <linearGradient
       id="linearGradient2264">
      <stop
         id="stop2266"
         style="stop-color:#d7e866;stop-opacity:1"
         offset="0" />
      <stop
         id="stop2268"
         style="stop-color:#8cab2a;stop-opacity:1"
         offset="1" />
    </linearGradient>
    <linearGradient
       x1="28.314739"
       y1="29.353853"
       x2="28.314739"
       y2="9.0036469"
       id="linearGradient2510"
       xlink:href="#linearGradient2264"
       gradientUnits="userSpaceOnUse"
       gradientTransform="matrix(0.319447,0,0,-0.313352,0.91413,15.486281)" />
    <linearGradient
       id="linearGradient4222">
      <stop
         id="stop4224"
         style="stop-color:#ffffff;stop-opacity:1"
         offset="0" />
      <stop
         id="stop4226"
         style="stop-color:#ffffff;stop-opacity:0"
         offset="1" />
    </linearGradient>
    <linearGradient
       x1="22.495962"
       y1="35.078724"
       x2="22.495962"
       y2="3.9534953"
       id="linearGradient2506"
       xlink:href="#linearGradient4222"
       gradientUnits="userSpaceOnUse"
       gradientTransform="matrix(-0.3704967,0,0,-0.3617496,17.332054,17.508315)" />
  </defs>
  <metadata
     id="metadata2509">
    <rdf:RDF>
      <cc:Work
         rdf:about="">
        <dc:format>image/svg+xml</dc:format>
        <dc:type
           rdf:resource="http://purl.org/dc/dcmitype/StillImage" />
      </cc:Work>
    </rdf:RDF>
  </metadata>
  <g
     id="layer1">
    <path
       d="M 8.5,14.176046 1.499147,7.9844847 8.5,1.8239536 8.5,4.5 l 6.000853,0 0,7 -6.000853,0 0,2.676046 z"
       inkscape:connector-curvature="0"
       id="path3288"
       style="fill:url(#linearGradient2510);fill-opacity:1;fill-rule:nonzero;stroke:#699536;stroke-width:0.99829447;stroke-linecap:round;stroke-linejoin:round;stroke-miterlimit:4;stroke-opacity:1;stroke-dasharray:none;stroke-dashoffset:0;marker:none;visibility:visible;display:inline;overflow:visible" />
    <path
       d="M 7.5,11.926403 2.954885,8 7.5,3.9630618 7.5,5.5 l 6,0 0,5 -6,0 0,1.426403 z"
       inkscape:connector-curvature="0"
       id="path3290"
       style="opacity:0.35400008;fill:none;stroke:url(#linearGradient2506);stroke-width:0.99829447;stroke-linecap:butt;stroke-linejoin:miter;stroke-miterlimit:4;stroke-opacity:1;stroke-dasharray:none;stroke-dashoffset:0;marker:none;visibility:visible;display:inline;overflow:visible" />
  </g>
</svg>

<?xml version="1.0" encoding="UTF-8" standalone="no"?>
<!-- Created with Inkscape (http://www.inkscape.org/) -->
<svg
   xmlns:dc="http://purl.org/dc/elements/1.1/"
   xmlns:cc="http://creativecommons.org/ns#"
   xmlns:rdf="http://www.w3.org/1999/02/22-rdf-syntax-ns#"
   xmlns:svg="http://www.w3.org/2000/svg"
   xmlns="http://www.w3.org/2000/svg"
   xmlns:xlink="http://www.w3.org/1999/xlink"
   xmlns:sodipodi="http://sodipodi.sourceforge.net/DTD/sodipodi-0.dtd"
   xmlns:inkscape="http://www.inkscape.org/namespaces/inkscape"
   width="16px"
   height="16px"
   id="svg2504"
   sodipodi:version="0.32"
   inkscape:version="0.46"
   sodipodi:docname="back.svg"
   inkscape:output_extension="org.inkscape.output.svg.inkscape">
  <defs
     id="defs2506">
    <linearGradient
       inkscape:collect="always"
       id="linearGradient5105-262-943-861">
      <stop
         offset="0"
         id="stop2487"
         style="stop-color:#0d0d0d;stop-opacity:1;" />
      <stop
         offset="1"
         id="stop2489"
         style="stop-color:#0d0d0d;stop-opacity:0;" />
    </linearGradient>
    <radialGradient
       inkscape:collect="always"
       xlink:href="#linearGradient5105-262-943-861"
       id="radialGradient2502"
       gradientUnits="userSpaceOnUse"
       gradientTransform="matrix(1,0,0,0.282946,0,13.64644)"
       cx="11.25"
       cy="19.03125"
       fx="11.25"
       fy="19.03125"
       r="8.0625" />
    <linearGradient
       id="linearGradient2264">
      <stop
         style="stop-color:#d7e866;stop-opacity:1;"
         offset="0"
         id="stop2266" />
      <stop
         style="stop-color:#8cab2a;stop-opacity:1;"
         offset="1"
         id="stop2268" />
    </linearGradient>
    <linearGradient
       inkscape:collect="always"
       xlink:href="#linearGradient2264"
       id="linearGradient2510"
       gradientUnits="userSpaceOnUse"
       gradientTransform="matrix(0.319447,0,0,-0.313352,0.91413,15.486281)"
       x1="28.314739"
       y1="29.353853"
       x2="28.314739"
       y2="9.0036469" />
    <linearGradient
       inkscape:collect="always"
       id="linearGradient4222">
      <stop
         style="stop-color:#ffffff;stop-opacity:1;"
         offset="0"
         id="stop4224" />
      <stop
         style="stop-color:#ffffff;stop-opacity:0;"
         offset="1"
         id="stop4226" />
    </linearGradient>
    <linearGradient
       inkscape:collect="always"
       xlink:href="#linearGradient4222"
       id="linearGradient2506"
       gradientUnits="userSpaceOnUse"
       gradientTransform="matrix(-0.3704967,0,0,-0.3617496,17.332054,17.508315)"
       x1="22.495962"
       y1="35.078724"
       x2="22.495962"
       y2="3.9534953" />
  </defs>
  <sodipodi:namedview
     id="base"
     pagecolor="#ffffff"
     bordercolor="#666666"
     borderopacity="1.0"
     inkscape:pageopacity="0.0"
     inkscape:pageshadow="2"
     inkscape:zoom="22.197802"
     inkscape:cx="1.1749999"
     inkscape:cy="8"
     inkscape:current-layer="layer1"
     showgrid="true"
     inkscape:grid-bbox="true"
     inkscape:document-units="px"
     inkscape:window-width="1440"
     inkscape:window-height="781"
     inkscape:window-x="0"
     inkscape:window-y="24" />
  <metadata
     id="metadata2509">
    <rdf:RDF>
      <cc:Work
         rdf:about="">
        <dc:format>image/svg+xml</dc:format>
        <dc:type
           rdf:resource="http://purl.org/dc/dcmitype/StillImage" />
      </cc:Work>
    </rdf:RDF>
  </metadata>
  <g
     id="layer1"
     inkscape:label="Layer 1"
     inkscape:groupmode="layer">
    <path
       id="path3288"
       d="M 8.5,14.176046 L 1.499147,7.9844847 L 8.5,1.8239536 L 8.5,4.5 L 14.500853,4.5 L 14.500853,11.5 L 8.5,11.5 L 8.5,14.176046 z"
       style="display:inline;fill:url(#linearGradient2510);fill-opacity:1;fill-rule:nonzero;stroke:#699536;stroke-width:0.99829447000000004;stroke-linecap:round;stroke-linejoin:round;marker:none;marker-start:none;marker-mid:none;marker-end:none;stroke-miterlimit:4;stroke-dasharray:none;stroke-dashoffset:0;stroke-opacity:1;visibility:visible;overflow:visible"
       sodipodi:nodetypes="cccccccc" />
    <path
       id="path3290"
       d="M 7.5,11.926403 L 2.954885,8 L 7.5,3.9630618 L 7.5,5.5 L 13.5,5.5 L 13.5,10.5 L 7.5,10.5 L 7.5,11.926403 z"
       style="display:inline;opacity:0.35400002000000003;fill:none;fill-opacity:1;fill-rule:nonzero;stroke:url(#linearGradient2506);stroke-width:0.99829447000000004;stroke-linecap:butt;stroke-linejoin:miter;marker:none;marker-start:none;marker-mid:none;marker-end:none;stroke-miterlimit:4;stroke-dasharray:none;stroke-dashoffset:0;stroke-opacity:1;visibility:visible;overflow:visible"
       sodipodi:nodetypes="cccccccc" />
  </g>
</svg>
